picto/multi-purpose-area.svg

<svg class="color-immutable" width="24" height="24" viewBox="0 0 24 24" fill="none" xmlns="http://www.w3.org/2000/svg"><path d="M0 22.5V1.5C0 0.675 0.675 0 1.5 0H22.5C23.325 0 24 0.675 24 1.5V22.5C24 23.325 23.325 24 22.5 24H1.5C0.675 24 0 23.325 0 22.5Z" fill="#2D327D"/><path d="M21 20.7H3V21H21V20.7Z" fill="white"/><path d="M3 7.27502L5.467 16.8H5.468C5.581 17.19 5.941 17.475 6.368 17.475H7.529L4.35 7.27502H3Z" fill="white"/><path d="M8.475 11.475H7.5C7.294 11.475 7.125 11.644 7.125 11.85V15.171L7.843 17.475H8.1C8.512 17.475 8.85 17.138 8.85 16.725V11.85C8.85 11.644 8.681 11.475 8.475 11.475Z" fill="white"/><path d="M5.175 5.925C5.333 5.759 5.325 5.68 5.325 5.528V3.375C5.325 3.169 5.156 3 4.95 3H3.375C3.169 3 3 3.169 3 3.375V6.825H4.35L5.175 5.925Z" fill="white"/><path d="M9.15001 8.17497H8.77501L9.66301 7.29797H9.06401L7.96301 8.39997L9.06501 9.50197H9.66401L8.77501 8.62497H9.15001C10.639 8.62497 11.85 9.83697 11.85 11.327H12.3C12.3 9.58897 10.887 8.17497 9.15001 8.17497Z" fill="white"/></svg>

<svg class="color-immutable" width="24" height="24" viewBox="0 0 24 24" fill="none" xmlns="http://www.w3.org/2000/svg"><g clip-path="url(#a)"><path d="M0 22.5v-21C0 .675.675 0 1.5 0h21c.825 0 1.5.675 1.5 1.5v21c0 .825-.675 1.5-1.5 1.5h-21C.675 24 0 23.325 0 22.5Z" fill="#2D327D"/><path d="M21 20.7H3v.3h18v-.3ZM3 7.275 5.467 16.8h.001c.113.39.473.675.9.675h1.161L4.35 7.275H3ZM8.475 11.475H7.5a.376.376 0 0 0-.375.375v3.321l.718 2.304H8.1c.412 0 .75-.337.75-.75V11.85a.376.376 0 0 0-.375-.375ZM5.175 5.925c.158-.166.15-.245.15-.397V3.375A.376.376 0 0 0 4.95 3H3.375A.376.376 0 0 0 3 3.375v3.45h1.35l.825-.9ZM9.15 8.175h-.375l.888-.877h-.599L7.963 8.4l1.102 1.102h.599l-.889-.877h.375c1.489 0 2.7 1.212 2.7 2.702h.45a3.155 3.155 0 0 0-3.15-3.152Z" fill="#fff"/></g><defs><clipPath id="a"><path fill="#fff" d="M0 0h24v24H0z"/></clipPath></defs></svg>
